X:89
T:Wind that Shakes the Barley
M:2/4
L:1/16
K:D
A2AB AGFE|B2{c}BA (B2d2)|A2AB AFED|gfed (B2d2)::f2fd g2ge|f2fd edBA|
f2fd g2ge|afed (B2d2)|f2fd g2ge|f2fd ecBA|defg afba|gfed (B2c2):|
